symbolia/scalable/status/network-cellular-error.svg

<?xml version="1.0" encoding="UTF-8" standalone="no"?>
<svg
   height="24"
   viewBox="0 0 24 24"
   width="24"
   version="1.1"
   id="svg4"
   sodipodi:docname="network-cellular-error.svg"
   inkscape:version="1.1 (c68e22c387, 2021-05-23)"
   xmlns:inkscape="http://www.inkscape.org/namespaces/inkscape"
   xmlns:sodipodi="http://sodipodi.sourceforge.net/DTD/sodipodi-0.dtd"
   xmlns="http://www.w3.org/2000/svg"
   xmlns:svg="http://www.w3.org/2000/svg">
  <defs
     id="defs8" />
  <sodipodi:namedview
     id="namedview6"
     pagecolor="#ffffff"
     bordercolor="#666666"
     borderopacity="1.0"
     inkscape:pageshadow="2"
     inkscape:pageopacity="0.0"
     inkscape:pagecheckerboard="0"
     showgrid="false"
     inkscape:zoom="33.541667"
     inkscape:cx="12.014907"
     inkscape:cy="12.014907"
     inkscape:window-width="1920"
     inkscape:window-height="1016"
     inkscape:window-x="0"
     inkscape:window-y="0"
     inkscape:window-maximized="1"
     inkscape:current-layer="svg4" />
  <path
     id="path2"
     d="M 20.964844 3.40625 C 20.72677 3.4117187 20.485938 3.5023438 20.289062 3.6992188 L 3.7109375 20.289062 C 3.0809375 20.919063 3.5201562 22 4.4101562 22 L 18 22 L 18 11 C 18 9.34 19.34 8 21 8 L 22 8 L 22 4.4101562 C 22 3.7982813 21.488606 3.3942187 20.964844 3.40625 z M 21 10 C 20.45 10 20 10.45 20 11 L 20 17 C 20 17.55 20.45 18 21 18 C 21.55 18 22 17.55 22 17 L 22 11 C 22 10.45 21.55 10 21 10 z M 21 20 A 1 1 0 0 0 20 21 A 1 1 0 0 0 21 22 A 1 1 0 0 0 22 21 A 1 1 0 0 0 21 20 z " />
</svg>

<svg xmlns="http://www.w3.org/2000/svg" height="24" viewBox="0 0 24 24" width="24"><path d="M21 18c.55 0 1-.45 1-1v-6c0-.55-.45-1-1-1s-1 .45-1 1v6c0 .55.45 1 1 1zm-1 4h2v-2h-2v2zM4.41 22H18V11c0-1.66 1.34-3 3-3h1V4.41c0-.89-1.08-1.34-1.71-.71L3.71 20.29c-.63.63-.19 1.71.7 1.71z"/></svg>
